X:103
T:La Marche Printani\`ere
C:Richard Forest
Z:robin.beech@mcgill.ca
R:jig
M:6/8
L:1/8
K:D
A |: f2B gag | f2d Aed | cec Ace | dfb a2A |
f2B gag | f2d Aed | cec ABc |1 dAF D2A :|2 dAF D3 |:
DFA dAF | EAc ecA | dfe dcB | A (3Bcd ecA |
DFA dAF | EAc ecA | GBA GFE | DFA d2A :|

